swiss/communes/1004.svg

<svg height="1000" width="882" xmlns="http://www.w3.org/2000/svg" xmlns:xlink="http://www.w3.org/1999/xlink"><defs><pattern id="d" width="20" height="50" patternUnits="userSpaceOnUse" patternTransform="translate(15 8)"><use xlink:href="#a"/></pattern><pattern id="e" width="20" height="50" patternUnits="userSpaceOnUse" patternTransform="translate(0 13)"><use xlink:href="#a"/></pattern><path d="M-22 0v-66a22 22 0 0 1 44 0V0z" id="b" fill="#000" stroke="none"/><path d="M-44 0v-22a33 33 0 0 1 66 0V0z" id="c" fill="#000" stroke="none"/><g id="a" style="stroke:#000;fill:none;stroke-width:2px"><path fill="#D04020" d="M0 0h20v50H0z"/><path d="M0 0v14a10 10 0 0 0 20 0V-1"/><path d="M0 49a10 10 0 0 0 10-10V24m0 15a10 10 0 0 0 10 10"/></g></defs><g style="fill-opacity:1;stroke:#000;stroke-width:10;stroke-linejoin:miter"><path style="stroke-width:10px;fill:#37a7d0" d="M5 5v554a436 436 0 0 0 872 0V5z"/><path fill="#fff" d="M215 840V253h140v587zM355 840V543h290v297z"/><use xlink:href="#b" x="285" y="371"/><use xlink:href="#b" x="285" y="511"/><use xlink:href="#b" x="285" y="651"/><use xlink:href="#c" x="452" y="651"/><use xlink:href="#c" x="565" y="651"/><path style="fill:url(#d)" d="M285 103c10 30 82 140 102 160H183c20-20 92-130 102-160z"/><path style="fill:url(#e)" d="M355 543V383h290c10 30 100 155 120 160z"/><path style="fill:none;stroke-width:10px" d="M285 103V28m-25 25h50M645 383v-75m-25 25h50"/><path style="fill:#fff;stroke-width:8px;stroke-linejoin:round" d="M725 543v20c-30 0-60 52-80 72v26c20-20 57-82 82-82h15v-36z"/><path fill="#309737" d="M236 941c-50-60-38-164 12-184s70 0 102 40 50 125 50 195a436 436 0 0 1-164-51M646 941c50-60 38-164-12-184s-70 0-102 40-50 125-50 195a436 436 0 0 0 164-51"/><path fill="#309737" d="M387 991c-90-160-46-286 54-286s144 127 54 287a436 436 0 0 1-108-1"/></g></svg>

<?xml version="1.0" encoding="UTF-8" standalone="no"?>
<!DOCTYPE svg PUBLIC "-//W3C//DTD SVG 1.1//EN" "http://www.w3.org/Graphics/SVG/1.1/DTD/svg11.dtd">
<svg version="1.1"
   height="1000px"
   width="882px"
   xmlns="http://www.w3.org/2000/svg"
   xmlns:svg="http://www.w3.org/2000/svg"
   xmlns:xlink="http://www.w3.org/1999/xlink"
   id="blazono_fluehli"
   viewBox="0 0 882 1000"
   >
  <desc>Wappen der Schweizer Gemeinde Flühli, Kanton Luzern</desc><!-- prenita de Jwnabd -->
  <!-- verda=309737  blua=#37A7D0  ruĝa=#37A7D0  -->
  <defs id="difinoj">
    <g id="turfenestro" fill="#000" stroke="none">
      <path d="M -22,0 v -66 a 22,22 0 0 1 44,0 v 66 z" />
    </g>
    <g id="granda_fenestro" fill="#000" stroke="none">
      <path d="M -44,0 v -22 a 33,33 0 0 1 66,0 v 22 z" />
    </g>

    <g id="tegoloj" style="stroke:#000;fill:none;stroke-width:2px;">
        <rect x="0" y="0" width="20" height="50" fill="#D04020" stroke="none"/>
        <path d="M 0,0 l 0,14 a 10,10 0 0 0 20,0 l 0,-15" />
        <path d="M 0,49 a 10,10 0 0 0 10,-10 l 0,-15 m 0,15 a 10,10 0 0 0 10,10" />
    </g>

    <pattern id="tegoloj1" width="20" height="50" patternUnits="userSpaceOnUse" patternTransform="translate(15,8)">
        <use xlink:href="#tegoloj" />
    </pattern>
    <pattern id="tegoloj2" width="20" height="50" patternUnits="userSpaceOnUse" patternTransform="translate(0,13)">
        <use xlink:href="#tegoloj" />
    </pattern>
  </defs>
  <title>Blazono de Flühli</title>

  <g id="ĉio"
     style="fill-opacity:1;stroke:#000;stroke-width:10;stroke-linejoin:miter;" >
    <path id="ŝildo" style="stroke-width:10px;fill:#37A7D0;"
          d="M 5,5 V 559 a 436,436 0 0 0 872,0 V 5 z" />

    <!-- la preĝejo -->
    <path id="turo" fill="white" d="M 215,840 V 253 H 355 V 840 z" />
    <path id="navo" fill="white" d="M 355,840 V 543 H 645 V 840 z" />

    <!-- fenestroj -->
    <use xlink:href="#turfenestro"     x="285" y="371" id="supra_turfenestro" />
    <use xlink:href="#turfenestro"     x="285" y="511" id="meza_turfenestro" />
    <use xlink:href="#turfenestro"     x="285" y="651" id="malsupra_turfenestro" />
    <use xlink:href="#granda_fenestro" x="452" y="651" id="maldekstra_fenestro" />
    <use xlink:href="#granda_fenestro" x="565" y="651" id="dekstra_fenestro" />

    <!-- tegmentoj -->
    <path id="turtegmento" style="fill:url(#tegoloj1);"
          d="M 285,103  c 10,30 82,140 102,160 h -204 c 20,-20  92,-130 102,-160   z" />
    <path id="navtegmento" style="fill:url(#tegoloj2);"
          d="M 355,543 v -160 h 290 c 10,30 100,155 120,160 z" />

    <path id="turkruco" style="fill:none;stroke-width:10px;"  d="M285,103 l 0,-75 m -25,25 l 50,0" />
    <path id="navkruco" style="fill:none;stroke-width:10px;"  d="M645,383 l 0,-75 m -25,25 l 50,0" />
    <path id="apogilo_aŭ_pluvtubo" style="fill:white;stroke-width:8px;stroke-linejoin:round;" d="
          M 725,543 v 20 c -30,0 -60,52 -80,72
                    v 26 c 20,-20 57,-82 82,-82
                    h 15 v -36z" />

    <!-- folioj, aŭ arboj? -->
    <path id="mdfolio" fill="#309737" d="
        M 236,941 c -50,-60 -38,-164   12,-184   s  70,0  102,40   s  50,125  50,195   A 436,436 0 0 1 236,941" />
    <path id="dfolio"  fill="#309737" d="
        M 646,941 c  50,-60  38,-164  -12,-184   s -70,0 -102,40   s -50,125 -50,195   A 436,436 0 0 0 646,941" />
    <path id="mfolio"  fill="#309737" d="
        M 387,991 c -90,-160 -46,-286  54,-286   s 144,127 54,287   A 436,436 0 0 1 387,991" />

  </g>
</svg>
